packages/core/src/svgs/adapad.svg

<svg width="24" height="24" viewBox="0 0 24 24" fill="none" xmlns="http://www.w3.org/2000/svg">
<g clip-path="url(#clip0_31_5583)">
<path d="M0 0H24V24H0V0Z" fill="#F0F3FA"/>
<path d="M5.14282 6.85693H18.8571V17.5712C18.8571 17.5712 17.3571 16.2855 12 16.4998C6.64282 16.7141 5.14282 17.5712 5.14282 17.5712V6.85693Z" fill="url(#paint0_linear_31_5583)"/>
<path fill-rule="evenodd" clip-rule="evenodd" d="M18.8571 17.3571C18.8571 17.9485 15.7885 18.4285 12 18.4285C8.21139 18.4285 5.14282 17.9485 5.14282 17.3571C5.14282 16.7656 8.21139 16.2856 12 16.2856C15.7885 16.2856 18.8571 16.7656 18.8571 17.3571ZM7.45282 17.4514C7.45282 17.4814 7.26425 17.5114 7.02425 17.5114C6.79282 17.5114 6.60425 17.4814 6.60425 17.4514C6.60425 17.4171 6.79282 17.3871 7.02854 17.3871C7.26425 17.3871 7.45282 17.4171 7.45282 17.4514ZM8.04425 17.9056C8.27997 17.9056 8.47282 17.8799 8.47282 17.8456C8.47282 17.8114 8.27997 17.7856 8.04425 17.7856C7.81282 17.7856 7.61997 17.8114 7.61997 17.8456C7.61997 17.8799 7.81282 17.9056 8.04854 17.9056H8.04425ZM10.0157 17.6356C10.0157 17.6699 9.78425 17.6999 9.50139 17.6999C9.21854 17.6999 8.98711 17.6699 8.98711 17.6356C8.98711 17.6014 9.21854 17.5714 9.50139 17.5714C9.78425 17.5714 10.0157 17.6014 10.0157 17.6356ZM9.69425 17.0999C9.91711 17.0999 10.0971 17.0828 10.0971 17.0571C10.0971 17.0314 9.91711 17.0142 9.69425 17.0142C9.46711 17.0142 9.28711 17.0314 9.28711 17.0571C9.28711 17.0828 9.46711 17.0999 9.69425 17.0999ZM10.6971 16.9285C10.6971 16.9542 10.5814 16.9714 10.44 16.9714C10.2985 16.9714 10.1828 16.9542 10.1828 16.9285C10.1828 16.9028 10.2985 16.8856 10.44 16.8856C10.5814 16.8856 10.6971 16.9028 10.6971 16.9285ZM9.13711 17.3999C9.40711 17.3999 9.62996 17.3699 9.62996 17.3356C9.62996 17.3014 9.40711 17.2714 9.13711 17.2714C8.86711 17.2714 8.64425 17.3014 8.64425 17.3356C8.64425 17.3699 8.86711 17.3999 9.13711 17.3999ZM11.9357 17.3356C11.9357 17.3956 11.55 17.4428 11.0785 17.4428C10.6071 17.4428 10.2257 17.3956 10.2257 17.3356C10.2257 17.3099 10.29 17.2928 10.3971 17.2714H10.3114C9.88711 17.2714 9.53997 17.2328 9.53997 17.1856C9.53997 17.1385 9.88711 17.0999 10.3114 17.0999C10.74 17.0999 11.0828 17.1385 11.0828 17.1856C11.0828 17.2028 11.04 17.2156 10.9757 17.2285H11.0828C11.5543 17.2285 11.94 17.2756 11.94 17.3356H11.9357ZM12.0428 17.9999C12.3128 17.9999 12.5357 17.9614 12.5357 17.9142C12.5357 17.8671 12.3128 17.8285 12.0428 17.8285C11.7728 17.8285 11.55 17.8671 11.55 17.9142C11.55 17.9614 11.7728 17.9999 12.0428 17.9999ZM15.27 17.6142C15.27 17.6614 15.0385 17.6999 14.7557 17.6999C14.4728 17.6999 14.2414 17.6614 14.2414 17.6142C14.2414 17.5671 14.4728 17.5285 14.7557 17.5285C15.0385 17.5285 15.27 17.5671 15.27 17.6142ZM16.1871 17.9142C16.41 17.9142 16.5943 17.8842 16.5943 17.8499C16.5943 17.8156 16.41 17.7856 16.1871 17.7856C15.9643 17.7856 15.78 17.8156 15.78 17.8499C15.78 17.8842 15.9643 17.9142 16.1871 17.9142ZM15.5657 17.3356C15.5657 17.3699 15.3385 17.3999 15.0514 17.3999C14.7728 17.3999 14.5414 17.3699 14.5414 17.3356C14.5414 17.3014 14.7728 17.2714 15.0557 17.2714C15.3385 17.2714 15.57 17.3014 15.57 17.3356H15.5657ZM17.2371 17.4856C17.4685 17.4856 17.6614 17.4685 17.6614 17.4428C17.6614 17.4171 17.4685 17.3999 17.2328 17.3999C16.9971 17.3999 16.8043 17.4171 16.8043 17.4428C16.8043 17.4685 16.9971 17.4856 17.2328 17.4856H17.2371ZM17.79 17.1428C17.79 17.1685 17.6743 17.1856 17.5328 17.1856C17.3914 17.1856 17.2757 17.1685 17.2757 17.1428C17.2757 17.1171 17.3914 17.0999 17.5328 17.0999C17.6743 17.0999 17.79 17.1171 17.79 17.1428ZM12.0643 17.6142C12.3943 17.6142 12.6643 17.5842 12.6643 17.5499C12.6643 17.5156 12.3943 17.4856 12.0643 17.4856C11.7343 17.4856 11.4643 17.5156 11.4643 17.5499C11.4643 17.5842 11.7343 17.6142 12.0643 17.6142ZM11.9357 17.0356C11.9357 17.0699 11.6314 17.0999 11.25 17.0999C10.8728 17.0999 10.5685 17.0699 10.5685 17.0356C10.5685 17.0014 10.8728 16.9714 11.2543 16.9714C11.6314 16.9714 11.9357 17.0014 11.9357 17.0356ZM13.0928 17.4428C13.5643 17.4428 13.9457 17.3956 13.9457 17.3356C13.9457 17.3099 13.8771 17.2885 13.7657 17.2714H13.8814C14.2928 17.2714 14.6271 17.2242 14.6271 17.1642C14.6271 17.1042 14.2928 17.0571 13.8814 17.0571C13.4657 17.0571 13.1314 17.1042 13.1314 17.1642C13.1314 17.1899 13.1957 17.2114 13.3028 17.2328L13.0885 17.2285C12.6171 17.2285 12.2314 17.2756 12.2314 17.3356C12.2314 17.3956 12.6171 17.4428 13.0885 17.4428H13.0928ZM12.8785 17.0999C13.2514 17.0999 13.56 17.0699 13.56 17.0356C13.56 17.0014 13.2514 16.9714 12.8743 16.9714C12.4971 16.9714 12.1885 17.0014 12.1885 17.0356C12.1885 17.0699 12.4971 17.0999 12.8743 17.0999H12.8785ZM12.45 16.9285C12.45 16.9542 12.2785 16.9714 12.0643 16.9714C11.85 16.9714 11.6785 16.9542 11.6785 16.9285C11.6785 16.9028 11.85 16.8856 12.0643 16.8856C12.2785 16.8856 12.45 16.9028 12.45 16.9285ZM16.0585 17.2285C16.26 17.2285 16.4228 17.2114 16.4228 17.1856C16.4228 17.1599 16.26 17.1428 16.0585 17.1428C15.8571 17.1428 15.6943 17.1599 15.6943 17.1856C15.6943 17.2114 15.8571 17.2285 16.0585 17.2285ZM8.12996 17.2285C8.34425 17.2285 8.51568 17.2114 8.51568 17.1856C8.51568 17.1599 8.34425 17.1428 8.12996 17.1428C7.91996 17.1428 7.74854 17.1599 7.74854 17.1856C7.74854 17.2114 7.91996 17.2285 8.13425 17.2285H8.12996ZM8.68711 16.9714C8.68711 16.9971 8.58425 17.0142 8.45568 17.0142C8.32711 17.0142 8.21997 16.9971 8.21997 16.9714C8.21997 16.9456 8.32282 16.9285 8.45568 16.9285C8.58425 16.9285 8.68711 16.9456 8.68711 16.9714ZM6.72425 17.2285C6.86568 17.2285 6.98139 17.2114 6.98139 17.1856C6.98139 17.1599 6.86568 17.1428 6.72425 17.1428C6.58282 17.1428 6.46711 17.1599 6.46711 17.1856C6.46711 17.2114 6.58282 17.2285 6.72425 17.2285Z" fill="#0437AD"/>
<path d="M12 9.91706C12.1714 9.91706 12.3085 9.77991 12.3085 9.61277C12.3085 9.44134 12.1714 9.3042 12 9.3042C11.8285 9.3042 11.6914 9.44134 11.6914 9.61277C11.6914 9.7842 11.8285 9.91706 12 9.91706Z" fill="#0437AD"/>
<path d="M10.0544 6.4157C10.2253 6.03661 10.5022 5.71505 10.8517 5.48976C11.2012 5.26448 11.6085 5.1451 12.0243 5.146C12.4401 5.14691 12.8468 5.26806 13.1954 5.49487C13.5439 5.72167 13.8194 6.04444 13.9887 6.42428L17.0572 13.5386C17.3572 14.2328 16.8387 15 16.0715 15H14.683C14.5758 14.2971 13.9972 13.9928 13.4187 14.0786C13.3458 13.5386 12.9472 13.4443 12.7544 13.4657C12.6258 13.2557 12.4544 12.6771 12.3772 12.4286H11.623C11.5501 12.6771 11.3701 13.2557 11.2458 13.4657C11.053 13.4443 10.6544 13.5386 10.5815 14.0786C10.003 13.9928 9.42438 14.2971 9.31724 15H7.92867C7.15724 15 6.64296 14.2286 6.94296 13.5386L10.0544 6.4157ZM12.0001 7.72713C11.6744 8.32713 11.0744 9.65142 11.1815 10.2471L11.2415 10.6114L11.3358 11.1428L11.0701 10.5086L10.5558 11.9443L11.3658 11.5971C11.4044 11.58 11.4472 11.5714 11.4901 11.5714H12.5101C12.553 11.5714 12.5958 11.58 12.6387 11.5971L13.4401 11.94L12.9301 10.5086L12.6644 11.1428L12.7587 10.6157L12.8187 10.2471C12.9258 9.64713 12.3258 8.32713 12.0001 7.72713Z" fill="#0437AD"/>
<path d="M11.0143 14.5628C10.8426 14.5243 10.6648 14.522 10.4922 14.5559C10.3195 14.5899 10.1558 14.6594 10.0115 14.76C10.1288 14.6362 10.2727 14.5406 10.4323 14.4805C10.5919 14.4203 10.7631 14.3972 10.9329 14.4128C10.9672 14.0828 11.3315 13.8857 11.5072 13.8257C11.3687 13.8954 11.2507 14.0001 11.165 14.1294C11.0794 14.2587 11.0289 14.4081 11.0186 14.5628H11.0143ZM13.2429 14.5628C13.7143 14.46 14.1086 14.6485 14.2415 14.76C14.1246 14.6368 13.9814 14.5415 13.8226 14.4814C13.6638 14.4213 13.4935 14.3979 13.3243 14.4128C13.29 14.0828 12.9258 13.8857 12.7458 13.8257C12.8851 13.8949 13.0039 13.9993 13.0903 14.1286C13.1768 14.2579 13.2279 14.4076 13.2386 14.5628H13.2429Z" fill="#0437AD"/>
</g>
<defs>
<linearGradient id="paint0_linear_31_5583" x1="12" y1="6.85693" x2="12" y2="17.5712" gradientUnits="userSpaceOnUse">
<stop stop-color="white" stop-opacity="0"/>
<stop offset="1" stop-color="#053DAA" stop-opacity="0.17"/>
</linearGradient>
<clipPath id="clip0_31_5583">
<rect width="24" height="24" fill="white"/>
</clipPath>
</defs>
</svg>

<svg xmlns="http://www.w3.org/2000/svg" width="24" height="24" fill="none" viewBox="0 0 24 24"><g clip-path="url(#a)"><path fill="#F0F3FA" d="M0 0h24v24H0z"/><path fill="url(#b)" d="M5.143 6.857h13.714V17.57S17.357 16.285 12 16.5c-5.357.214-6.857 1.071-6.857 1.071z"/><path fill="#0437AD" fill-rule="evenodd" d="M18.857 17.357c0 .591-3.068 1.072-6.857 1.072s-6.857-.48-6.857-1.072c0-.591 3.068-1.071 6.857-1.071s6.857.48 6.857 1.071m-11.404.094c0 .03-.189.06-.429.06-.231 0-.42-.03-.42-.06 0-.034.189-.064.425-.064.235 0 .424.03.424.064m.591.455c.236 0 .429-.026.429-.06 0-.035-.193-.06-.429-.06-.231 0-.424.025-.424.06s.193.06.429.06zm1.972-.27c0 .034-.232.064-.515.064-.282 0-.514-.03-.514-.064 0-.035.232-.065.514-.065s.515.03.515.065m-.322-.536c.223 0 .403-.017.403-.043s-.18-.043-.403-.043c-.227 0-.407.017-.407.043s.18.043.407.043m1.003-.172c0 .026-.116.043-.257.043s-.257-.017-.257-.043.116-.042.257-.042.257.017.257.043m-1.56.472c.27 0 .493-.03.493-.064 0-.035-.223-.065-.493-.065s-.493.03-.493.065c0 .034.223.064.493.064m2.799-.064c0 .06-.386.107-.857.107-.472 0-.853-.047-.853-.107 0-.026.064-.043.171-.065h-.086c-.424 0-.771-.038-.771-.085s.347-.086.771-.086c.429 0 .772.038.772.086 0 .017-.043.03-.107.043h.107c.471 0 .857.047.857.107zm.107.664c.27 0 .493-.039.493-.086s-.223-.086-.493-.086-.493.04-.493.086c0 .047.223.086.493.086m3.227-.386c0 .047-.231.086-.514.086s-.515-.039-.515-.086.232-.085.515-.085.514.038.514.085m.917.3c.223 0 .407-.03.407-.064s-.184-.064-.407-.064-.407.03-.407.064.184.064.407.064m-.621-.578c0 .034-.228.064-.515.064-.278 0-.51-.03-.51-.064 0-.035.232-.065.515-.065s.514.03.514.065zm1.671.15c.232 0 .424-.018.424-.043 0-.026-.193-.043-.428-.043-.236 0-.429.017-.429.043s.193.043.429.043zm.553-.343c0 .026-.116.043-.257.043s-.257-.017-.257-.043.115-.043.257-.043c.141 0 .257.017.257.043m-5.726.471c.33 0 .6-.03.6-.064s-.27-.064-.6-.064-.6.03-.6.064.27.064.6.064m-.128-.578c0 .034-.305.064-.686.064-.377 0-.681-.03-.681-.064 0-.035.304-.065.685-.065.377 0 .682.03.682.065m1.157.407c.471 0 .853-.047.853-.107 0-.026-.069-.047-.18-.065h.115c.412 0 .746-.047.746-.107s-.334-.107-.746-.107c-.415 0-.75.047-.75.107 0 .026.065.047.172.069l-.215-.005c-.47 0-.857.048-.857.108s.386.107.857.107zm-.214-.343c.372 0 .681-.03.681-.064 0-.035-.309-.065-.686-.065s-.686.03-.686.065c0 .034.31.064.686.064zm-.429-.172c0 .026-.171.043-.386.043-.214 0-.386-.017-.386-.043s.172-.042.386-.042.386.017.386.043m3.608.3c.202 0 .365-.017.365-.042s-.163-.043-.364-.043c-.202 0-.365.017-.365.043s.163.043.364.043m-7.928 0c.214 0 .386-.017.386-.042s-.172-.043-.386-.043c-.21 0-.381.017-.381.043s.171.043.385.043zm.557-.257c0 .026-.103.043-.231.043-.129 0-.236-.017-.236-.043s.103-.043.236-.043c.128 0 .231.018.231.043m-1.963.258c.142 0 .257-.018.257-.043 0-.026-.115-.043-.257-.043-.141 0-.257.017-.257.043s.116.043.257.043" clip-rule="evenodd"/><path fill="#0437AD" d="M12 9.917a.306.306 0 1 0 0-.613.307.307 0 0 0-.309.309c0 .171.137.304.309.304"/><path fill="#0437AD" d="M10.054 6.416a2.156 2.156 0 0 1 3.935.008l3.068 7.115c.3.694-.218 1.461-.985 1.461h-1.389c-.107-.703-.686-1.007-1.264-.921-.073-.54-.472-.635-.665-.613-.128-.21-.3-.789-.377-1.037h-.754c-.073.248-.253.827-.377 1.037-.193-.022-.592.073-.665.613-.578-.086-1.157.218-1.264.921H7.93c-.772 0-1.286-.771-.986-1.461zM12 7.727c-.326.6-.926 1.924-.819 2.52l.06.364.095.532-.266-.634-.514 1.435.81-.347a.3.3 0 0 1 .124-.026h1.02q.064 0 .129.026l.801.343-.51-1.431-.266.634.095-.527.06-.369c.107-.6-.493-1.92-.819-2.52"/><path fill="#0437AD" d="M11.014 14.563a1.27 1.27 0 0 0-1.002.197 1.13 1.13 0 0 1 .92-.347c.035-.33.4-.527.575-.587a.89.89 0 0 0-.488.737zm2.229 0c.471-.103.866.085.999.197a1.13 1.13 0 0 0-.918-.347c-.034-.33-.398-.527-.578-.587a.89.89 0 0 1 .493.737z"/></g><defs><linearGradient id="b" x1="12" x2="12" y1="6.857" y2="17.571" gradientUnits="userSpaceOnUse"><stop stop-color="#fff" stop-opacity="0"/><stop offset="1" stop-color="#053DAA" stop-opacity=".17"/></linearGradient><clipPath id="a"><path fill="#fff" d="M0 0h24v24H0z"/></clipPath></defs></svg>
